X: 291
T:Waterman's
M:7/8
L:1/8
C:Mike McGoldrick
Z:Richard Moon
K:Em
E2B2 BAG|A2GA B2E|GAA2 AGA|Bc BG AGF|
E2B2 BAG|A2GA B2E|GAA2 ABG|AB GF  E3:||
g2e2 efg|f2 BA BdB|c2A2 ABG|AB cd eaf|
g2e2 efg|f2 BA BdB|c2A2 ABG|AB GF EGB|
g2e2 efg|a2 gf efd|b2 ag fga|g2 fe fdB|
g2e2 efg|f2 BA BdB|c2A2 ABG|AB GF E3||

